flaticon/productivity-and-development/target-2.svg

<svg xmlns="http://www.w3.org/2000/svg" width="32" height="32" viewBox="0 0 24 24">
    <path d="M 12 0 C 5.382812 0 0 5.382812 0 12 C 0 18.617188 5.382812 24 12 24 C 18.617188 24 24 18.617188 24 12 C 24 5.382812 18.617188 0 12 0 Z M 22.964844 11.492188 L 20.246094 11.492188 C 19.996094 7.339844 16.664062 4.007812 12.511719 3.753906 L 12.511719 1.035156 C 18.160156 1.292969 22.707031 5.84375 22.964844 11.492188 Z M 12 14.570312 C 10.585938 14.570312 9.433594 13.417969 9.433594 12.003906 C 9.433594 10.589844 10.585938 9.4375 12 9.4375 C 13.414062 9.4375 14.566406 10.589844 14.566406 12.003906 C 14.566406 13.417969 13.414062 14.570312 12 14.570312 Z M 11.488281 8.453125 C 9.921875 8.679688 8.675781 9.925781 8.449219 11.492188 L 4.777344 11.492188 C 5.023438 7.90625 7.902344 5.027344 11.488281 4.777344 Z M 8.449219 12.515625 C 8.675781 14.082031 9.921875 15.328125 11.488281 15.554688 L 11.488281 19.222656 C 7.902344 18.972656 5.03125 16.101562 4.777344 12.515625 Z M 12.511719 15.554688 C 14.078125 15.328125 15.324219 14.082031 15.550781 12.515625 L 19.222656 12.515625 C 18.96875 16.101562 16.097656 18.972656 12.511719 19.222656 Z M 15.550781 11.492188 C 15.324219 9.925781 14.078125 8.679688 12.511719 8.453125 L 12.511719 4.777344 C 16.097656 5.027344 18.972656 7.90625 19.222656 11.492188 Z M 11.488281 1.035156 L 11.488281 3.753906 C 7.335938 4.007812 4.003906 7.339844 3.753906 11.492188 L 1.035156 11.492188 C 1.292969 5.84375 5.839844 1.292969 11.488281 1.035156 Z M 1.035156 12.515625 L 3.753906 12.515625 C 4.007812 16.664062 7.339844 19.992188 11.488281 20.246094 L 11.488281 22.964844 C 5.84375 22.707031 1.296875 18.160156 1.035156 12.515625 Z M 12.511719 22.964844 L 12.511719 20.246094 C 16.660156 19.992188 19.988281 16.664062 20.246094 12.515625 L 22.964844 12.515625 C 22.703125 18.160156 18.15625 22.707031 12.511719 22.964844 Z M 12.511719 22.964844"/>
</svg>

<svg xmlns="http://www.w3.org/2000/svg" width="32" height="32" viewBox="0 0 24 24">
    <path d="M12 0C5.383 0 0 5.383 0 12s5.383 12 12 12 12-5.383 12-12S18.617 0 12 0zm10.965 11.492h-2.719c-.25-4.152-3.582-7.484-7.734-7.738V1.035c5.648.258 10.195 4.809 10.453 10.457zM12 14.57a2.57 2.57 0 0 1-2.566-2.566A2.57 2.57 0 0 1 12 9.438a2.57 2.57 0 0 1 2.566 2.566A2.57 2.57 0 0 1 12 14.57zm-.512-6.117a3.605 3.605 0 0 0-3.039 3.04H4.777c.246-3.587 3.125-6.466 6.711-6.716zM8.45 12.516a3.605 3.605 0 0 0 3.04 3.039v3.668a7.248 7.248 0 0 1-6.712-6.707zm4.063 3.039a3.605 3.605 0 0 0 3.039-3.04h3.672a7.248 7.248 0 0 1-6.711 6.708zm3.039-4.063a3.605 3.605 0 0 0-3.04-3.039V4.777c3.587.25 6.462 3.13 6.712 6.715zM11.488 1.035v2.719c-4.152.254-7.484 3.586-7.734 7.738H1.035C1.293 5.844 5.84 1.293 11.488 1.035zM1.035 12.515h2.719c.254 4.15 3.586 7.477 7.734 7.731v2.719c-5.644-.258-10.191-4.805-10.453-10.45zm11.477 10.45v-2.719c4.148-.254 7.476-3.582 7.734-7.73h2.719c-.262 5.644-4.809 10.191-10.453 10.449zm0 0"/>
</svg>
